X: 249
T:New Mown Meadow, The
C:Reel
M:4/4
L:1/8
R:reel
K:Edor
BEED E2FA|BdcA BAFA|BE~E2 FDFA|A2BA FEFA|
BEED E2FA|BdcA BAFA|d2dB c2cB|1 AcBA FEFA:|2 AcBA FAcd||
e2ce fece|e2cA BAFA|e2ce fecB|AcBA FAE2|
e2ce fece|e2cA BAFA|d2dB c2cB|1 AcBA FAd:|2 AcBA FEFA||

